X:1
T:James Gibb editions
T:Dextera Domini - Concina
T:#
%%score { 1 | 2 } 3
L:1/8
Q:1/4=72
M:4/4
K:C
V:1 treble nm="Soprano I" snm="S"
V:2 treble 
V:3 treble nm="Alto" snm="A"
V:1
"^Dextera Domini""^lento""^Giovanni Concina\n(1868?-1936?)"!p! e2 dc B2 A2 | c2!mf! (d3 e)fd | %2
w: De- xte- ra Do- mi-|ni fe\- * cit vir-|
 (c2 d2)"^," e2 (f2- | fe) (dc/d/) B2 z2 | z2 c4 BA |[M:4/4] (cdef e2) d2 | A2 z2 z2 (e2- | %7
w: tu\- * tem, vir\-|* * tu\- * * tem,|de- xte- ra|Do\- * * * * mi-|ni e\-|
 ed) (cB) A2 B2 | c2 e4 d2 | f4 e2 g2- | gc f4 e2 | d3 e (fc f2- | f2 e2) d4 | ^c4 z2 d2 | %14
w: * * xal\- * ta- vit|me: e- xal-|ta- vit, e\-|* xal- ta- vit,|e- xal- ta\- * *|* * vit|me: non|
 f2 e2 f2 d2 | (e2 d2) c2 z2 | f3 e (de fg/f/) | e2 z2 f2 e2 | (de fe/d/) c2 z2 | %19
w: mo- ri- ar, sed|vi\- * vam,|et nar- ra\- * * * *|bo, et nar-|ra\- * * * * bo|
!f! f3 e d2[Q:1/4=71] (d2- | %20
w: o- pe- ra Do\-|
[Q:1/4=70] d[Q:1/4=69]e[Q:1/4=68] c3[Q:1/4=67] B/[Q:1/4=67]A/)[Q:1/4=66] B2 | %21
w: * * * * * mi-|
[Q:1/4=64] !fermata!A8 |] %22
w: ni.|
V:2
 z8 |!mf! c2 BA G2 F2 |"^," A2 (B3 c)BA | A4"^," ^G2 A2 | (=G4 F4) |[M:4/4] E2 c4 BA | c4 B4 | %7
w: |De- xte- ra Do- mi-|ni fe\- * cit vir-|tu- tem, vir-|tu\- *|tem, de- xte- ra|Do- mi-|
 c2 z2 z2 (e2- | ed) (cB) c2 B2 | A2 d3 c B2 | A2 d3 B c2- | c2 B2 A3 B | c4 B4 | A4 z2 A2 | %14
w: ni e\-|* * xal\- * ta- vit|me, e- xal- ta-|vit, e- xal- ta\-|* vit, e- xal-|ta- vit|me: non|
 d3 ^c d2 B2 | (=c2 B2) c2 A2- | AG (DE FGAB) | c2 A3 B (cB/A/) | B4!f! A3 A | A2 (c3 B/A/ B2- | %20
w: mo- ri- ar, sed|vi\- * vam, et|* nar- ra\- * * * * *|bo, et nar- ra\- * *|bo o- pe-|ra Do\- * * *|
 Bc A3 ^G/^F/) G2 | !fermata!A8 |] %22
w: * * * * * mi-|ni.|
V:3
 z8 | z8 |!mf! A2 GF E2 D2 | C2 D2 E2 =F2 | (=E4 D4) |[M:4/4] A,8 | z2 A4 ^GE | (A3 =G ^F2 ^G2 | %8
w: ||De- xte- ra Do- mi-|ni fe- cit vir-|tu\- *|tem,|de- xte- ra|Do\- * * *|
 A3) ^G A2 z2 | z4 A2 =G2 | (F3 E) D2 A2- | AF G2 F2 D2 | A,2 (A3 ^G/^F/) G2 |"^," A4 D2 =F2- | %14
w: * mi- ni|e- xal-|ta\- * vit, e\-|* xal- ta- vit, e-|xal- ta\- * * vit|me: non mo\-|
 F=G A2 D2 (GF | EF) G2 A2 F2 | (DEFG) A2 D2 | (AG) (FE D2) C2 |!f! G3 G A2 F2- | F2 C2 G4 | %20
w: * ri- ar, sed vi\- *|* * vam, et nar-|ra\- * * * bo, et|nar\- * ra\- * * bo|o- pe- ra Do\-|* mi- ni,|
 (C3 D) E4 | !fermata!A8 |] %22
w: Do\- * mi-|ni.|

